X: 1
P: Fire Skilling
R: shottish
Z: Brian Wilson
M: 4/4
L: 1/8
K: A
|: "A"e>f ed c2 cd | "B7"B2 B^d "E7"e4 | "A"e>f ed c2 cd | "E7"B2 BG "A"A4 :|
|:"A"Ace^/d c2A2 | Ace^/d c2A2 | Ace^/d cBAc | "E7"BAGB "A"A4 :|
P: D:
K: D
|: "D"A>B AG F2 FG | "E7"E2 E^G "A7"A4 | "D"A>B AG F2 FG | "A7"E2 EC "D"D4 :|
|:"D"DFA^/G F2D2 | DFA^/G F2D2 | DFA^/G FEDF | "A7"EDCE "D"D4 :|
